X:1
T:Title
%%score { ( 1 4 ) | ( 2 3 ) }
L:1/8
M:4/4
K:F
V:1 treble nm="Grand Piano"
V:4 treble 
V:2 bass 
V:3 bass 
V:1
 z4 z2[Q:1/4=100] F2 | A2 A2 AGAB | [CFc]2 [Fd]2 [B,EG]2 .[A,FA]2 | %3
 [CGB][C^FA][CGB][=FAc] [EBd]2 [EBc]2 | [FAc]2 [CFA]2 [EG]-[B,EG] F2 | A2 A2 AGAB | %6
 [CEc]2 [Fd]2 [EG]2 [EB]2 | [FA][CFA][CFc][Fd] [Fc][FA][EA][EG] |[M:3/4] F6 |[M:1/4] A>B | %10
[M:4/4] c2 d2 A2 c>d | c4 A2 [Ac]>[Ad] | [EGc]4 [CEG]2 [EGc]>[EBd] | [FAc]4 A2 A>B | %14
 c2 c2 d2 [Be]>[Be] | [Af]4 [FBd]2 [DGB]2 | [CFA]2 [CFA]2 [CEA]3 [B,EG] |[M:3/4] [A,F]6 |] %18
V:2
 z4 z2 [F,A,]2 | [F,CF]2 [F,CF]2 [F,CF][F,CF][F,CF][F,DF] | A,,2 [B,,B,]2 C,2 z C | %3
 C,C,C,C, C,2 C,2 | F,2 F,2 C,2 [F,A,]2 | [F,CF]2 [F,CF]2 [F,CF][F,CF][F,CF][F,DF] | %6
 A,,2 [B,,B,]2 [C,B,]2 [C,G,]2 | F,F,A,,[B,,B,] [C,A,][C,C][C,C][C,B,] |[M:3/4] [F,A,]6 | %9
[M:1/4] [F,F]>[F,G,F] |[M:4/4] [F,A,F]2 [F,B,F]2 [F,CF]2 [F,A,F]>[F,B,F] | %11
 [F,A,F]4 [F,CF]2 [F,F]>[F,F] | C,4 C,2 C,>C, | F,4[K:treble] [F,CF]2 [F,F]>[F,G,F] | %14
 [F,A,F]2 [F,A,F]2 [B,F]2[K:bass] [G,C]>[G,C] | [F,C]4 B,,2 B,,2 | C,2 C,2 C,3 C, |[M:3/4] F,6 |] %18
V:3
 x8 | x8 | z4 z2 C,2 | x8 | x8 | x8 | x8 | x8 |[M:3/4] x6 |[M:1/4] x2 |[M:4/4] x8 | x8 | x8 | %13
 x4[K:treble] x4 | x6[K:bass] x2 | x8 | x8 |[M:3/4] x6 |] %18
V:4
 x8 | x8 | x8 | x8 | z4 .C2 z2 | x8 | x8 | x8 |[M:3/4] x6 |[M:1/4] x2 |[M:4/4] x8 | x8 | x8 | x8 | %14
 x8 | x8 | x8 |[M:3/4] x6 |] %18

